svgs/regular/scanner-keyboard.svg

<svg xmlns="http://www.w3.org/2000/svg" viewBox="0 0 512 512"><!-- Font Awesome Pro 6.0.0-alpha2 by @fontawesome - https://fontawesome.com License - https://fontawesome.com/license (Commercial License) --><path d="M256 384H208C199.164 384 192 391.164 192 400V416C192 424.836 199.164 432 208 432H256C264.838 432 272 424.836 272 416V400C272 391.164 264.838 384 256 384ZM256 304H208C199.164 304 192 311.164 192 320V336C192 344.836 199.164 352 208 352H256C264.838 352 272 344.836 272 336V320C272 311.164 264.838 304 256 304ZM144 304H96C87.164 304 80 311.164 80 320V336C80 344.836 87.164 352 96 352H144C152.838 352 160 344.836 160 336V320C160 311.164 152.838 304 144 304ZM144 384H96C87.164 384 80 391.164 80 400V416C80 424.836 87.164 432 96 432H144C152.838 432 160 424.836 160 416V400C160 391.164 152.838 384 144 384ZM256 16C256 7.199 248.801 0 240 0S224 7.199 224 16V64H256V16ZM192 16C192 7.199 184.801 0 176 0H144C135.201 0 128 7.199 128 16V64H192V16ZM496 0H464C455.201 0 448 7.199 448 16V272C448 280.801 455.201 288 464 288H496C504.801 288 512 280.801 512 272V16C512 7.199 504.801 0 496 0ZM256 176H96C87.164 176 80 183.164 80 192V240C80 248.836 87.164 256 96 256H256C264.838 256 272 248.836 272 240V192C272 183.164 264.838 176 256 176ZM400 0C391.199 0 384 7.199 384 16V272C384 280.799 391.199 288 400 288S416 280.799 416 272V16C416 7.199 408.801 0 400 0ZM288 96H64C28.654 96 0 124.654 0 160V448C0 483.346 28.654 512 64 512H288C323.348 512 352 483.346 352 448V160C352 124.654 323.348 96 288 96ZM304 448C304 456.822 296.822 464 288 464H64C55.178 464 48 456.822 48 448V160C48 151.178 55.178 144 64 144H288C296.822 144 304 151.178 304 160V448ZM336 0H304C295.201 0 288 7.199 288 16V64H352V16C352 7.199 344.801 0 336 0Z"/></svg>

<svg xmlns="http://www.w3.org/2000/svg" viewBox="0 0 512 512"><!--! Font Awesome Pro 6.0.0-alpha3 by @fontawesome - https://fontawesome.com License - https://fontawesome.com/license (Commercial License) --><path d="M256 384H208C199.2 384 192 391.2 192 400V416c0 8.836 7.164 16 16 16H256c8.838 0 16-7.164 16-16v-16C272 391.2 264.8 384 256 384zM256 304H208C199.2 304 192 311.2 192 320v16C192 344.8 199.2 352 208 352H256c8.838 0 16-7.164 16-16V320C272 311.2 264.8 304 256 304zM144 304H96c-8.836 0-16 7.164-16 16v16C80 344.8 87.16 352 96 352h48C152.8 352 160 344.8 160 336V320C160 311.2 152.8 304 144 304zM144 384H96c-8.836 0-16 7.164-16 16V416c0 8.836 7.164 16 16 16h48C152.8 432 160 424.8 160 416v-16C160 391.2 152.8 384 144 384zM256 16C256 7.199 248.8 0 240 0S224 7.199 224 16V64h32V16zM192 16C192 7.199 184.8 0 176 0h-32C135.2 0 128 7.199 128 16V64h64V16zM496 0h-32C455.2 0 448 7.199 448 16v256C448 280.8 455.2 288 464 288h32C504.8 288 512 280.8 512 272v-256C512 7.199 504.8 0 496 0zM256 176H96C87.16 176 80 183.2 80 192v48C80 248.8 87.16 256 96 256h160c8.838 0 16-7.164 16-16V192C272 183.2 264.8 176 256 176zM400 0C391.2 0 384 7.199 384 16v256C384 280.8 391.2 288 400 288S416 280.8 416 272v-256C416 7.199 408.8 0 400 0zM288 96H64C28.65 96 0 124.7 0 160v288c0 35.35 28.65 64 64 64h224c35.35 0 64-28.65 64-64V160C352 124.7 323.3 96 288 96zM304 448c0 8.822-7.178 16-16 16H64c-8.822 0-16-7.178-16-16V160c0-8.822 7.178-16 16-16h224c8.822 0 16 7.178 16 16V448zM336 0h-32C295.2 0 288 7.199 288 16V64h64V16C352 7.199 344.8 0 336 0z"/></svg>
